dist/files/product_vehicle_logo.svg

<svg width="142" height="142" viewBox="0 0 142 142" fill="none" xmlns="http://www.w3.org/2000/svg">
<g filter="url(#filter0_d_5335_2976)">
<circle cx="67" cy="68" r="59" fill="#152968"/>
</g>
<path d="M40.2884 70.6934C40.2884 70.047 39.7691 69.5234 39.1267 69.5234H26.7763C26.1351 69.5234 25.6157 70.047 25.6157 70.6934C25.6157 71.3386 26.1351 71.8633 26.7763 71.8633H39.1267C39.7691 71.8633 40.2884 71.3386 40.2884 70.6934Z" fill="white"/>
<path d="M39.1267 51.0039H26.7763C26.1351 51.0039 25.6157 51.5274 25.6157 52.1738C25.6157 52.8202 26.1351 53.3437 26.7763 53.3437H39.1267C39.7691 53.3437 40.2884 52.8202 40.2884 52.1738C40.2884 51.5274 39.7691 51.0039 39.1267 51.0039Z" fill="white"/>
<mask id="mask0_5335_2976" style="mask-type:luminance" maskUnits="userSpaceOnUse" x="18" y="60" width="18" height="3">
<path d="M18 60.0625H35.6396V62.7077H18V60.0625Z" fill="white"/>
</mask>
<g mask="url(#mask0_5335_2976)">
<path d="M19.1617 62.6094H34.4528C35.094 62.6094 35.6134 62.0858 35.6134 61.4394C35.6134 60.7931 35.094 60.2695 34.4528 60.2695H19.1617C18.5193 60.2695 18 60.7931 18 61.4394C18 62.0858 18.5193 62.6094 19.1617 62.6094Z" fill="white"/>
</g>
<path d="M94.0068 89.0977C92.6993 89.0977 91.6401 90.1654 91.6401 91.4823C91.6401 92.8003 92.6993 93.8669 94.0068 93.8669C95.3132 93.8669 96.3735 92.8003 96.3735 91.4823C96.3735 90.1654 95.3132 89.0977 94.0068 89.0977Z" fill="white"/>
<path d="M49.8335 89.0977C48.526 89.0977 47.4668 90.1654 47.4668 91.4823C47.4668 92.8003 48.526 93.8669 49.8335 93.8669C51.1398 93.8669 52.199 92.8003 52.199 91.4823C52.199 90.1654 51.1398 89.0977 49.8335 89.0977Z" fill="white"/>
<path d="M98.8616 75.1501H85.7241V61.9101H90.2673L98.8616 70.5726V75.1501ZM83.4019 59.5703V77.4899H101.184V69.6036L91.2285 59.5703H83.4019Z" fill="white"/>
<mask id="mask1_5335_2976" style="mask-type:luminance" maskUnits="userSpaceOnUse" x="36" y="41" width="71" height="59">
<path d="M36.8062 41H107V99.8105H36.8062V41Z" fill="white"/>
</mask>
<g mask="url(#mask1_5335_2976)">
<path d="M104.678 89.1848C104.678 89.791 104.189 90.2847 103.588 90.2847H102.172C101.591 86.264 98.1568 83.163 94.0078 83.163C89.8587 83.163 86.4237 86.264 85.8428 90.2847H57.9974C57.4165 86.264 53.9827 83.163 49.8336 83.163C45.6857 83.163 42.253 86.2629 41.671 90.2824C40.2861 90.2709 39.1631 89.1331 39.1631 87.7359V81.4959H79.8658V56.0585H88.5808C91.2618 56.0585 93.7811 57.1102 95.6763 59.0206L101.74 65.1297C103.635 67.0402 104.678 69.5798 104.678 72.2801V89.1848ZM94.0078 97.4718C90.7334 97.4718 88.0683 94.7875 88.0683 91.4867C88.0683 88.1871 90.7334 85.5028 94.0078 85.5028C97.2821 85.5028 99.9461 88.1871 99.9461 91.4867C99.9461 94.7875 97.2821 97.4718 94.0078 97.4718ZM49.8336 97.4718C46.5592 97.4718 43.8964 94.7875 43.8964 91.4867C43.8964 88.1871 46.5592 85.5028 49.8336 85.5028C53.108 85.5028 55.7719 88.1871 55.7719 91.4867C55.7719 94.7875 53.108 97.4718 49.8336 97.4718ZM97.3186 57.3662C94.9849 55.0138 91.8814 53.7198 88.5808 53.7198H79.8658V44.7015C79.8658 42.6602 78.2189 41 76.1928 41H40.5127C38.4877 41 36.8408 42.6602 36.8408 44.7015V47.969C36.8408 48.6154 37.3602 49.1389 38.0014 49.1389C38.6437 49.1389 39.1631 48.6154 39.1631 47.969V44.7015C39.1631 43.9506 39.7678 43.3398 40.5127 43.3398H76.1928C76.9376 43.3398 77.5447 43.9506 77.5447 44.7015V79.1561H39.1631V75.4833C39.1631 74.8369 38.6437 74.3134 38.0014 74.3134C37.3602 74.3134 36.8408 74.8369 36.8408 75.4833V87.7359C36.8408 90.4202 39.0002 92.6038 41.6596 92.6211C42.212 96.675 45.6618 99.8116 49.8336 99.8116C54.0055 99.8116 57.4553 96.6773 58.0088 92.6245H85.8337C86.3872 96.6773 89.8359 99.8116 94.0078 99.8116C98.1796 99.8116 101.628 96.6773 102.182 92.6245H103.588C105.47 92.6245 107.001 91.0815 107.001 89.1848V72.2801C107.001 68.954 105.715 65.8278 103.381 63.4753L97.3186 57.3662Z" fill="white"/>
</g>
<defs>
<filter id="filter0_d_5335_2976" x="0.6" y="0.6" width="140.8" height="140.8" filterUnits="userSpaceOnUse" color-interpolation-filters="sRGB">
<feFlood flood-opacity="0" result="BackgroundImageFix"/>
<feColorMatrix in="SourceAlpha" type="matrix" values="0 0 0 0 0 0 0 0 0 0 0 0 0 0 0 0 0 0 127 0" result="hardAlpha"/>
<feOffset dx="4" dy="3"/>
<feGaussianBlur stdDeviation="5.7"/>
<feComposite in2="hardAlpha" operator="out"/>
<feColorMatrix type="matrix" values="0 0 0 0 0.128333 0 0 0 0 0.119778 0 0 0 0 0.119778 0 0 0 0.25 0"/>
<feBlend mode="normal" in2="BackgroundImageFix" result="effect1_dropShadow_5335_2976"/>
<feBlend mode="normal" in="SourceGraphic" in2="effect1_dropShadow_5335_2976" result="shape"/>
</filter>
</defs>
</svg>

<svg width="142" height="142" fill="none" xmlns="http://www.w3.org/2000/svg"><g filter="url(#a)"><circle cx="67" cy="68" r="59" fill="#152968"/></g><path d="M40.288 70.693c0-.646-.519-1.17-1.161-1.17h-12.35c-.642 0-1.161.524-1.161 1.17 0 .646.52 1.17 1.16 1.17h12.35c.643 0 1.162-.524 1.162-1.17ZM39.127 51.004h-12.35c-.642 0-1.161.523-1.161 1.17 0 .646.52 1.17 1.16 1.17h12.35c.643 0 1.162-.524 1.162-1.17 0-.647-.519-1.17-1.161-1.17Z" fill="#fff"/><mask id="b" style="mask-type:luminance" maskUnits="userSpaceOnUse" x="18" y="60" width="18" height="3"><path d="M18 60.063h17.64v2.645H18v-2.645Z" fill="#fff"/></mask><g mask="url(#b)"><path d="M19.162 62.61h15.29c.642 0 1.161-.524 1.161-1.17 0-.647-.519-1.17-1.16-1.17H19.162c-.643 0-1.162.523-1.162 1.17 0 .646.52 1.17 1.162 1.17Z" fill="#fff"/></g><path d="M94.007 89.098a2.375 2.375 0 0 0-2.367 2.384 2.375 2.375 0 0 0 2.367 2.385 2.375 2.375 0 0 0 2.367-2.385 2.376 2.376 0 0 0-2.367-2.384ZM49.834 89.098a2.375 2.375 0 0 0-2.367 2.384 2.375 2.375 0 0 0 2.367 2.385 2.375 2.375 0 0 0 2.365-2.385 2.375 2.375 0 0 0-2.365-2.384ZM98.862 75.15H85.724V61.91h4.543l8.595 8.663v4.577Zm-15.46-15.58v17.92h17.782v-7.886L91.228 59.57h-7.826Z" fill="#fff"/><mask id="c" style="mask-type:luminance" maskUnits="userSpaceOnUse" x="36" y="41" width="71" height="59"><path d="M36.806 41H107v58.81H36.806V41Z" fill="#fff"/></mask><g mask="url(#c)"><path d="M104.678 89.185c0 .606-.489 1.1-1.09 1.1h-1.416c-.581-4.021-4.015-7.122-8.164-7.122-4.15 0-7.584 3.101-8.165 7.122H57.997c-.58-4.021-4.014-7.122-8.163-7.122-4.148 0-7.581 3.1-8.163 7.12a2.54 2.54 0 0 1-2.508-2.547v-6.24h40.703V56.059h8.715c2.68 0 5.2 1.051 7.095 2.962l6.064 6.109a10.088 10.088 0 0 1 2.938 7.15v16.905Zm-10.67 8.287c-3.275 0-5.94-2.684-5.94-5.985 0-3.3 2.665-5.984 5.94-5.984 3.274 0 5.938 2.684 5.938 5.984s-2.664 5.985-5.938 5.985Zm-44.174 0c-3.275 0-5.938-2.684-5.938-5.985 0-3.3 2.663-5.984 5.938-5.984 3.274 0 5.938 2.684 5.938 5.984s-2.664 5.985-5.938 5.985Zm47.485-40.106a12.226 12.226 0 0 0-8.738-3.646h-8.715v-9.018c0-2.042-1.647-3.702-3.673-3.702h-35.68c-2.025 0-3.672 1.66-3.672 3.702v3.267c0 .646.52 1.17 1.16 1.17.643 0 1.162-.524 1.162-1.17v-3.267c0-.751.605-1.362 1.35-1.362h35.68c.745 0 1.352.61 1.352 1.361v34.455H39.163v-3.673c0-.646-.52-1.17-1.162-1.17-.64 0-1.16.524-1.16 1.17v12.253c0 2.684 2.16 4.868 4.819 4.885.552 4.054 4.002 7.19 8.174 7.19 4.171 0 7.621-3.134 8.175-7.187h27.825c.553 4.053 4.002 7.188 8.174 7.188s7.62-3.135 8.174-7.188h1.406c1.882 0 3.413-1.542 3.413-3.44V72.28a12.42 12.42 0 0 0-3.62-8.805l-6.062-6.109Z" fill="#fff"/></g><defs><filter id="a" x=".6" y=".6" width="140.8" height="140.8" filterUnits="userSpaceOnUse" color-interpolation-filters="sRGB"><feFlood flood-opacity="0" result="BackgroundImageFix"/><feColorMatrix in="SourceAlpha" values="0 0 0 0 0 0 0 0 0 0 0 0 0 0 0 0 0 0 127 0" result="hardAlpha"/><feOffset dx="4" dy="3"/><feGaussianBlur stdDeviation="5.7"/><feComposite in2="hardAlpha" operator="out"/><feColorMatrix values="0 0 0 0 0.128333 0 0 0 0 0.119778 0 0 0 0 0.119778 0 0 0 0.25 0"/><feBlend in2="BackgroundImageFix" result="effect1_dropShadow_5335_2976"/><feBlend in="SourceGraphic" in2="effect1_dropShadow_5335_2976" result="shape"/></filter></defs></svg>
